X:1
T:Risselty Rosselty
M:6/8
L:1/8
K:C
 G| cde ddc| A2 c G3| GGG GAB| c2 c c2 G| cce ddc| A2 c G3| GGG GGG|\
 G2 G GGG| GGG GGG| GGG GGG| GGG GAB| c2 c c2||
